icon-themes/breeze_svg/cmd/sc_printdefault.svg

<svg viewBox="0 0 16 16" xmlns="http://www.w3.org/2000/svg"><path d="m4 2v1 2h-1-1v1 5 1h1 2v1 1h5v-1h-4v-1h4v-2h-6v1h-1v-5h10v1 2h1v-2-1-1h-2v-2-1zm1 1h6v2h-6zm-1 4v1h2v-1z" fill="#4d4d4d"/><path d="m11 9v5l3-2.5z" fill="#1d99f3"/></svg>

<svg xmlns="http://www.w3.org/2000/svg" viewBox="0 0 16 16">
 <path 
     style="fill:#4d4d4d" 
     d="M 4 2 L 4 3 L 4 5 L 3 5 L 2 5 L 2 6 L 2 11 L 2 12 L 3 12 L 5 12 L 5 13 L 5 14 L 10 14 L 10 13 L 6 13 L 6 12 L 10 12 L 10 10 L 4 10 L 4 11 L 3 11 L 3 6 L 13 6 L 13 7 L 13 9 L 14 9 L 14 7 L 14 6 L 14 5 L 12 5 L 12 3 L 12 2 L 4 2 z M 5 3 L 11 3 L 11 5 L 5 5 L 5 3 z M 4 7 L 4 8 L 6 8 L 6 7 L 4 7 z "
     />
 <path 
     style="fill:#1d99f3" 
     d="M 11 9 L 11 14 L 14 11.5 L 11 9 z "
     />
 </svg>
